X:1
T:title
M:4/4
Q:120
L:1/8
R:Reel
K:C
 ^D3 ^e4 ^a | ge'4e'3 | F3 ^D4 ^d |  _b ^g'3 ^a' ^b ^a2 |  _G2 ^B4 ^a' ^a |  _c2ef4 ^d |  _b ^A4 _G ^F _b' |  _a4b'3 _E | 